SVG_Azure_All/Azure Batch Account.svg

<?xml version="1.0" encoding="UTF-8" standalone="no"?>
<!-- Generated by Microsoft Visio, SVG Export Azure Batch Account.svg Page-1 -->

<svg
   xmlns:dc="http://purl.org/dc/elements/1.1/"
   xmlns:cc="http://creativecommons.org/ns#"
   xmlns:rdf="http://www.w3.org/1999/02/22-rdf-syntax-ns#"
   xmlns:svg="http://www.w3.org/2000/svg"
   xmlns="http://www.w3.org/2000/svg"
   xmlns:sodipodi="http://sodipodi.sourceforge.net/DTD/sodipodi-0.dtd"
   xmlns:inkscape="http://www.inkscape.org/namespaces/inkscape"
   width="0.7873925in"
   height="0.78736192in"
   viewBox="0 0 56.692258 56.690199"
   xml:space="preserve"
   class="st6"
   version="1.1"
   id="svg56"
   sodipodi:docname="Azure Batch Account.svg"
   style="font-size:12px;overflow:visible;color-interpolation-filters:sRGB;fill:none;fill-rule:evenodd;stroke-linecap:square;stroke-miterlimit:3"
   inkscape:version="0.92.5 (2060ec1f9f, 2020-04-08)"><metadata
   id="metadata62"><rdf:RDF><cc:Work
       rdf:about=""><dc:format>image/svg+xml</dc:format><dc:type
         rdf:resource="http://purl.org/dc/dcmitype/StillImage" /></cc:Work></rdf:RDF></metadata><defs
   id="defs60" /><sodipodi:namedview
   pagecolor="#ffffff"
   bordercolor="#666666"
   borderopacity="1"
   objecttolerance="10"
   gridtolerance="10"
   guidetolerance="10"
   inkscape:pageopacity="0"
   inkscape:pageshadow="2"
   inkscape:window-width="640"
   inkscape:window-height="480"
   id="namedview58"
   showgrid="false"
   inkscape:zoom="1.8365233"
   inkscape:cx="37.795184"
   inkscape:cy="18.900351"
   inkscape:window-x="0"
   inkscape:window-y="0"
   inkscape:window-maximized="0"
   inkscape:current-layer="svg56" />
	<style
   type="text/css"
   id="style2">
	<![CDATA[
		.st1 {fill:#59b4d9;stroke:none;stroke-linecap:butt;stroke-width:0.0826977}
		.st2 {fill:#ffffff;stroke:none;stroke-linecap:butt;stroke-width:0.0826977}
		.st3 {fill:#57a300;stroke:none;stroke-linecap:butt;stroke-width:0.0826977}
		.st4 {fill:#3999c6;stroke:none;stroke-linecap:butt;stroke-width:0.0826977}
		.st5 {fill:#ffffff;fill-opacity:0.2;stroke:none;stroke-linecap:butt;stroke-width:0.0826977}
		.st6 {fill:none;fill-rule:evenodd;font-size:12px;overflow:visible;stroke-linecap:square;stroke-miterlimit:3}
	]]>
	</style>

	<g
   id="g54"
   transform="translate(-5.6693772,-5.6741)">
		<title
   id="title4">Page-1</title>
		<g
   id="group8432-1"
   transform="translate(5.66929,-34.0157)">
			<title
   id="title6">Azure Batch Account</title>
			<g
   id="shape8433-2"
   transform="translate(0,-25.07)">
				<title
   id="title8">path7</title>
				<path
   d="M 26.49,72.64 H 0 v 22.29 c 0,0.35 0.13,0.7 0.36,0.96 L 0.35,95.9 c 0.04,0.03 0.08,0.08 0.12,0.1 0.24,0.23 0.55,0.38 0.93,0.38 h 27.53 c 0.7,0 1.4,-0.6 1.4,-1.46 V 72.64 Z"
   class="st1"
   id="path10"
   inkscape:connector-curvature="0"
   style="fill:#59b4d9;stroke:none;stroke-width:0.0826977;stroke-linecap:butt" />
			</g>
			<g
   id="shape8434-4"
   transform="translate(5.81726,-30.1538)">
				<title
   id="title13">path9</title>
				<path
   d="m 0,82.69 h 18.93 v 1.82 H 0 Z m 0,5.93 h 18.93 v 1.82 H 0 Z m 0,5.94 h 18.93 v 1.82 H 0 Z"
   class="st2"
   id="path15"
   inkscape:connector-curvature="0"
   style="fill:#ffffff;stroke:none;stroke-width:0.0826977;stroke-linecap:butt" />
			</g>
			<g
   id="shape8435-6"
   transform="translate(32.5422,-24.9432)">
				<title
   id="title18">path11</title>
				<path
   d="m 11.6,88.26 c 0,0 1.4,-10.78 -8.12,-12.84 0,0 -0.81,-0.12 -1.86,-0.12 C 0.46,75.3 0,75.66 0,75.66 v 4.37 c 0,0 0.34,-0.36 1.85,-0.36 0.94,0 1.63,0.11 1.98,0.11 2.21,0.73 4.3,2.42 3.83,8.36 H 3.6 l 6.38,8.24 6.28,-8.24 H 11.6 Z"
   class="st3"
   id="path20"
   inkscape:connector-curvature="0"
   style="fill:#57a300;stroke:none;stroke-width:0.0826977;stroke-linecap:butt" />
			</g>
			<g
   id="shape8436-8"
   transform="translate(38.2277,-3.49839)">
				<title
   id="title23">path13</title>
				<path
   d="m 14.06,80.63 h -0.81 v 13.8 H 0 v 1.1 c 0,0.49 0.11,0.85 0.58,0.85 h 13.71 c 0.47,0 0.81,-0.36 0.81,-0.85 V 81.48 c 0,-0.49 -0.58,-0.85 -1.04,-0.85 z"
   class="st1"
   id="path25"
   inkscape:connector-curvature="0"
   style="fill:#59b4d9;stroke:none;stroke-width:0.0826977;stroke-linecap:butt" />
			</g>
			<g
   id="shape8437-10"
   transform="translate(41.5924)">
				<title
   id="title28">path15</title>
				<path
   d="m 14.06,80.64 h -0.81 v 13.69 c 0,0.11 -0.12,0.11 -0.12,0.11 H 0 v 1.09 c 0,0.49 0.11,0.85 0.58,0.85 h 13.48 c 0.57,0 1.04,-0.49 1.04,-1.09 v -13.8 c 0,-0.48 -0.58,-0.85 -1.04,-0.85 z"
   class="st1"
   id="path30"
   inkscape:connector-curvature="0"
   style="fill:#59b4d9;stroke:none;stroke-width:0.0826977;stroke-linecap:butt" />
			</g>
			<g
   id="shape8438-12"
   transform="translate(0,-19.1302)">
				<title
   id="title33">path17</title>
				<path
   d="m 3.84,66.7 h 26.48 v -6.43 c 0,-0.73 -0.57,-1.45 -1.4,-1.45 H 1.4 C 0.7,58.82 0,59.42 0,60.27 V 66.7 Z M 48.68,92.38 H 35.2 c -0.47,0 -0.81,0.36 -0.81,0.85 v 3.15 h 15.09 v -3.15 c 0.02,-0.49 -0.34,-0.85 -0.8,-0.85 z"
   class="st4"
   id="path35"
   inkscape:connector-curvature="0"
   style="fill:#3999c6;stroke:none;stroke-width:0.0826977;stroke-linecap:butt" />
			</g>
			<g
   id="shape8439-14"
   transform="translate(34.3968,-7.37727)">
				<title
   id="title38">path19</title>
				<path
   d="M 13.24,84.51 H 0 v 11.02 c 0,0.49 0.34,0.85 0.81,0.85 h 13.48 c 0.47,0 0.81,-0.36 0.81,-0.85 V 84.51 Z"
   class="st1"
   id="path40"
   inkscape:connector-curvature="0"
   style="fill:#59b4d9;stroke:none;stroke-width:0.0826977;stroke-linecap:butt" />
			</g>
			<g
   id="shape8440-16"
   transform="translate(37.873,-15.3781)">
				<title
   id="title43">path21</title>
				<rect
   x="0"
   y="94.443802"
   width="7.5502701"
   height="1.93415"
   class="st2"
   id="rect45"
   style="fill:#ffffff;stroke:none;stroke-width:0.0826977;stroke-linecap:butt" />
			</g>
			<g
   id="shape8441-18"
   transform="translate(0.0202698,-7.66263)">
				<title
   id="title48">path23</title>
				<path
   d="M 26.49,55.23 H 0 v 22.29 c 0,0.36 0.14,0.73 0.4,1.01 0.24,0.27 29.92,-23.3 29.92,-23.3 z m 22.99,29.56 h -15.1 v 10.96 c 0,0 -0.04,0.38 0.19,0.63 z"
   class="st5"
   id="path50"
   inkscape:connector-curvature="0"
   style="fill:#ffffff;fill-opacity:0.2;stroke:none;stroke-width:0.0826977;stroke-linecap:butt" />
			</g>
		</g>
	</g>
</svg>

<?xml version="1.0" encoding="UTF-8" standalone="no"?>
<!DOCTYPE svg PUBLIC "-//W3C//DTD SVG 1.1//EN" "http://www.w3.org/Graphics/SVG/1.1/DTD/svg11.dtd">
<!-- Generated by Microsoft Visio, SVG Export Azure Batch Account.svg Page-1 -->
<svg xmlns="http://www.w3.org/2000/svg" xmlns:xlink="http://www.w3.org/1999/xlink" xmlns:ev="http://www.w3.org/2001/xml-events"
		width="0.944882in" height="1.33858in" viewBox="0 0 68.0315 96.378" xml:space="preserve" color-interpolation-filters="sRGB"
		class="st6">
	<style type="text/css">
	<![CDATA[
		.st1 {fill:#59b4d9;stroke:none;stroke-linecap:butt;stroke-width:0.0826977}
		.st2 {fill:#ffffff;stroke:none;stroke-linecap:butt;stroke-width:0.0826977}
		.st3 {fill:#57a300;stroke:none;stroke-linecap:butt;stroke-width:0.0826977}
		.st4 {fill:#3999c6;stroke:none;stroke-linecap:butt;stroke-width:0.0826977}
		.st5 {fill:#ffffff;fill-opacity:0.2;stroke:none;stroke-linecap:butt;stroke-width:0.0826977}
		.st6 {fill:none;fill-rule:evenodd;font-size:12px;overflow:visible;stroke-linecap:square;stroke-miterlimit:3}
	]]>
	</style>

	<g>
		<title>Page-1</title>
		<g id="group8237-1" transform="translate(5.66929,-34.0157)">
			<title>Azure Batch Account</title>
			<g id="shape8238-2" transform="translate(2.8777E-13,-25.07)">
				<title>path7</title>
				<path d="M26.49 72.64 L0 72.64 L0 94.93 C0 95.28 0.13 95.63 0.36 95.89 L0.35 95.9 C0.39 95.93 0.43 95.98 0.47 96
							 C0.71 96.23 1.02 96.38 1.4 96.38 L28.93 96.38 C29.63 96.38 30.33 95.78 30.33 94.92 L30.33 72.64 L26.49
							 72.64 Z" class="st1"/>
			</g>
			<g id="shape8239-4" transform="translate(5.81726,-30.1538)">
				<title>path9</title>
				<path d="M0 82.69 L18.93 82.69 L18.93 84.51 L0 84.51 L0 82.69 ZM0 88.62 L18.93 88.62 L18.93 90.44 L0 90.44 L0 88.62
							 ZM0 94.56 L18.93 94.56 L18.93 96.38 L0 96.38 L0 94.56 Z" class="st2"/>
			</g>
			<g id="shape8240-6" transform="translate(32.5422,-24.9432)">
				<title>path11</title>
				<path d="M11.6 88.26 C11.6 88.26 13 77.48 3.48 75.42 C3.48 75.42 2.67 75.3 1.62 75.3 C0.46 75.3 0 75.66 0 75.66 L0
							 80.03 C0 80.03 0.34 79.67 1.85 79.67 C2.79 79.67 3.48 79.78 3.83 79.78 C6.04 80.51 8.13 82.2 7.66 88.14
							 L3.6 88.14 L9.98 96.38 L16.26 88.14 L11.6 88.14 L11.6 88.26 Z" class="st3"/>
			</g>
			<g id="shape8241-8" transform="translate(38.2277,-3.49839)">
				<title>path13</title>
				<path d="M14.06 80.63 L13.25 80.63 L13.25 94.43 L0 94.43 L0 95.53 C0 96.02 0.11 96.38 0.58 96.38 L14.29 96.38 C14.76
							 96.38 15.1 96.02 15.1 95.53 L15.1 81.48 C15.1 80.99 14.52 80.63 14.06 80.63 Z" class="st1"/>
			</g>
			<g id="shape8242-10" transform="translate(41.5924,2.98428E-13)">
				<title>path15</title>
				<path d="M14.06 80.64 L13.25 80.64 L13.25 94.33 C13.25 94.44 13.13 94.44 13.13 94.44 L0 94.44 L0 95.53 C0 96.02 0.11
							 96.38 0.58 96.38 L14.06 96.38 C14.63 96.38 15.1 95.89 15.1 95.29 L15.1 81.49 C15.1 81.01 14.52 80.64
							 14.06 80.64 Z" class="st1"/>
			</g>
			<g id="shape8243-12" transform="translate(-2.79776E-13,-19.1302)">
				<title>path17</title>
				<path d="M3.84 66.7 L30.32 66.7 L30.32 60.27 C30.32 59.54 29.75 58.82 28.92 58.82 L1.4 58.82 C0.7 58.82 0 59.42 0
							 60.27 L0 66.7 L3.84 66.7 ZM48.68 92.38 L35.2 92.38 C34.73 92.38 34.39 92.74 34.39 93.23 L34.39 96.38
							 L49.48 96.38 L49.48 93.23 C49.5 92.74 49.14 92.38 48.68 92.38 Z" class="st4"/>
			</g>
			<g id="shape8244-14" transform="translate(34.3968,-7.37727)">
				<title>path19</title>
				<path d="M13.24 84.51 L0 84.51 L0 95.53 C0 96.02 0.34 96.38 0.81 96.38 L14.29 96.38 C14.76 96.38 15.1 96.02 15.1
							 95.53 L15.1 84.51 L13.24 84.51 Z" class="st1"/>
			</g>
			<g id="shape8245-16" transform="translate(37.873,-15.3781)">
				<title>path21</title>
				<rect x="0" y="94.4438" width="7.55027" height="1.93415" class="st2"/>
			</g>
			<g id="shape8246-18" transform="translate(0.0202698,-7.66263)">
				<title>path23</title>
				<path d="M26.49 55.23 L0 55.23 L0 77.52 C0 77.88 0.14 78.25 0.4 78.53 C0.64 78.8 30.32 55.23 30.32 55.23 L26.49 55.23
							 ZM49.48 84.79 L34.38 84.79 L34.38 95.75 C34.38 95.75 34.34 96.13 34.57 96.38 L49.48 84.79 Z"
						class="st5"/>
			</g>
		</g>
	</g>
</svg>
